X:350
T: Cullen Slide #2
S: B.Breathnach: "Ceol Rince na hEireann" II/77 (gan ainm)
Z: B.Black
L: 1/8
M: 6/8
R: slide
Q: 375
K: G
B|d2g B2d|G2B AGB|A2A ABd|e2d B2d|
d2g B2d|G2B AGE|A2A ABA|G3 G2 :|
B|A2A ABd|e2d B2d|A2A ABd|e2d B2d|
d2g B2d|G2B AGB|A2A ABA|G3 G2 :|
